Other-SVG/Illustrations/RH Illustrations/gl-rh-lockup.svg

<svg width="440" height="228" viewBox="0 0 440 228" fill="none" xmlns="http://www.w3.org/2000/svg">
<path d="M177.5 214L120.646 214C114.635 214 109.762 209.127 109.762 203.116V203.116C109.762 197.105 104.889 192.233 98.8784 192.233L50 192.233C44.4772 192.233 40 187.755 40 182.233L40 180.689L40 166" stroke="url(#paint0_linear)" stroke-width="2.5" stroke-linecap="round" stroke-linejoin="round"/>
<path d="M222 201.6C234.813 201.6 245.2 191.213 245.2 178.4C245.2 165.587 234.813 155.2 222 155.2C209.187 155.2 198.8 165.587 198.8 178.4C198.8 191.213 209.187 201.6 222 201.6Z" fill="white"/>
<path d="M177.5 214.2V165.4C177.5 162.7 179.6 160.6 182.3 160.6H193.9" stroke="#52CDB7" stroke-width="2.5" stroke-miterlimit="10" stroke-linecap="round" stroke-linejoin="round"/>
<path d="M266.5 211.2V164.4C266.5 161.7 264.4 159.6 261.7 159.6H249.6" stroke="#52CDB7" stroke-width="2.5" stroke-miterlimit="10" stroke-linecap="round" stroke-linejoin="round"/>
<path d="M168.8 226.2C166.1 226.2 164 223.989 164 221.147V214.2H280V221.147C280 223.989 277.9 226.2 275.2 226.2H168.8Z" stroke="#52CDB7" stroke-width="2.5" stroke-miterlimit="10" stroke-linecap="round" stroke-linejoin="round"/>
<path d="M210.3 218.2C209.569 218.2 209 217.647 209 216.937V215.2H235V216.937C235 217.647 234.431 218.2 233.7 218.2H210.3Z" fill="#52CDB7"/>
<path d="M266.5 214L322.839 214C328.85 214 333.722 209.127 333.722 203.116V203.116C333.722 197.105 338.595 192.233 344.606 192.233L393 192.233C398.523 192.233 403 187.755 403 182.233L403 180.689L403 162" stroke="url(#paint1_linear)" stroke-width="2.5" stroke-linecap="round" stroke-linejoin="round"/>
<path d="M388.489 151.865L390.021 145.156C391.625 138.083 387.177 133.125 387.177 133.198C384.771 130.281 384.917 127 384.989 127.073C384.917 117.448 376.385 119.781 372.156 111.687L369.969 108.479C374.198 95.1354 386.375 89.2291 386.375 89.2291C387.687 90.25 388.271 91.6354 388.198 91.5625C390.021 95.5729 398.333 94.1875 398.26 94.1875C402.927 94.1875 403.365 99.5104 403.219 99.1458C403.219 100.604 402.562 101.917 401.469 102.865L392.135 110.885C388.125 114.313 389.583 119.125 389.583 118.979C391.989 128.531 408.76 124.667 408.76 135.24C407.521 142.021 401.177 145.521 394.833 154.125L388.489 151.865Z" fill="#2F80ED"/>
<path d="M427.938 95.4271L425.094 97.9792C422.104 100.677 417.219 99.2187 416.271 95.2083L414.302 86.8958C414.302 86.8958 423.417 90.1042 427.938 95.4271Z" fill="#2F80ED"/>
<path d="M427.792 144.573V137.646C427.792 131.958 423.198 133.781 421.521 127.802C421.521 127.875 419.771 120.729 419.771 120.729C418.021 116.135 421.375 111.177 426.333 111.177H436.615C436.615 111.177 442.01 130.135 427.792 144.573Z" fill="#2F80ED"/>
<path d="M369.969 108.479C374.708 94.7708 387.687 85 403 85C412.698 85 421.448 88.9375 427.719 95.2813" stroke="#2F80ED" stroke-width="2.5" stroke-miterlimit="10" stroke-linecap="round" stroke-linejoin="round"/>
<path d="M422.469 149.094C416.854 152.813 410.219 155 403 155C383.677 155 368 139.323 368 120C368 118.906 368.073 117.74 368.146 116.646" stroke="#2F80ED" stroke-width="2.5" stroke-miterlimit="10" stroke-linecap="round" stroke-linejoin="round"/>
<path d="M432.531 101.188C435.958 106.583 438 113.073 438 120C438 129.552 434.135 138.229 427.938 144.573" stroke="#2F80ED" stroke-width="2.5" stroke-miterlimit="10" stroke-linecap="round" stroke-linejoin="round"/>
<g clip-path="url(#clip0)">
<path d="M201.87 41.1056L197.45 27.622L188.87 1.04743C188.48 -0.26166 186.53 -0.26166 186.01 1.04743L177.3 27.7529H148.57L139.99 1.04743C139.6 -0.26166 137.65 -0.26166 137.13 1.04743L128.55 27.7529L124.13 41.1056C123.74 42.2838 124.13 43.7238 125.17 44.3783L163 72.0002L200.7 44.5093C201.87 43.7238 202.26 42.4147 201.87 41.1056Z" fill="#FA6E26"/>
<path d="M148.7 27.7527L163 72L177.43 27.7527H148.7Z" fill="#E04229"/>
<path d="M128.55 27.7527L163 72L148.57 27.7527H128.55Z" fill="#FA6E26"/>
<path d="M128.55 27.7527L124.13 41.1055C123.74 42.2837 124.13 43.7237 125.17 44.3782L163 72L128.55 27.7527Z" fill="#FAA126"/>
<path d="M128.55 27.7537H148.7L139.99 1.04829C139.6 -0.260805 137.65 -0.260805 137.13 1.04829L128.55 27.7537Z" fill="#E04229"/>
<path d="M177.43 27.7527L163 72L197.45 27.7527H177.43Z" fill="#FA6E26"/>
<path d="M197.45 27.7527L201.87 41.2364C202.26 42.4146 201.87 43.8546 200.83 44.5091L163 72L197.45 27.7527Z" fill="#FAA126"/>
<path d="M197.45 27.7537H177.43L186.14 1.04829C186.53 -0.260805 188.48 -0.260805 189 1.04829L197.45 27.7537Z" fill="#E04229"/>
</g>
<path d="M236 120H361" stroke="url(#paint2_linear)" stroke-width="2.5" stroke-linecap="round"/>
<path d="M235.037 115.381C235.703 114.956 236.575 115.434 236.575 116.224L236.575 120.064L236.575 123.904C236.575 124.694 235.703 125.172 235.037 124.747L229.024 120.907C228.409 120.514 228.409 119.614 229.024 119.221L235.037 115.381Z" fill="#2F80ED"/>
<path d="M76.472 114.228L70.073 111.966C66.913 110.796 65.333 107.13 66.755 104.088L69.599 98.004C67.308 94.884 64.464 92.076 61.304 89.814L55.142 92.622C52.061 94.026 48.348 92.544 47.163 89.346L44.872 83.028C40.922 82.404 36.972 82.404 33.101 83.028L30.81 89.346C29.625 92.466 25.912 94.026 22.831 92.622L16.669 89.814C13.509 92.076 10.665 94.884 8.374 98.004L11.218 104.088C12.64 107.13 11.139 110.796 7.9 111.966L1.58 114.228C0.947999 118.206 1.027 122.106 1.58 125.85L7.979 128.112C11.218 129.282 12.719 132.948 11.297 135.99L8.453 142.074C10.744 145.194 13.588 148.002 16.748 150.264L22.91 147.456C25.991 146.052 29.704 147.534 30.889 150.732L33.18 157.05C37.13 157.674 41.08 157.674 44.951 157.05L47.242 150.732C48.427 147.612 52.14 146.052 55.221 147.456L61.383 150.264C64.543 148.002 67.387 145.194 69.678 142.074L66.834 135.99C65.412 132.948 66.913 129.282 70.152 128.112L76.551 125.85C77.104 121.95 77.104 118.05 76.472 114.228ZM53.72 115.554L38.552 130.53C37.209 131.856 35.076 131.856 33.733 130.53L25.28 122.262C24.411 121.404 24.411 120.078 25.28 119.298L28.835 115.788C29.704 114.93 31.047 114.93 31.837 115.788L36.024 119.922L47.084 109.08C47.953 108.222 49.296 108.222 50.086 109.08L53.641 112.59C54.51 113.448 54.51 114.774 53.72 115.554Z" fill="white"/>
<path d="M33.6541 83.028C37.5251 82.404 41.4751 82.404 45.4251 83.028L47.7161 89.346C48.9011 92.466 52.6141 94.026 55.6951 92.622L61.8571 89.814C65.0171 92.076 67.8611 94.884 70.1521 98.004L67.308 104.088C65.8861 107.13 67.3871 110.796 70.6261 111.966L77.0251 114.228C77.6571 118.05 77.6571 121.95 77.0251 125.85L70.6261 128.112C67.4661 129.282 65.8861 132.948 67.308 135.99L70.1521 142.074C67.8611 145.194 65.0171 148.002 61.8571 150.264L55.6951 147.456C52.6141 146.052 48.9011 147.534 47.7161 150.732L46.9261 152.916" stroke="#9B51E0" stroke-width="2.5" stroke-miterlimit="10" stroke-linecap="round" stroke-linejoin="round"/>
<path d="M45.346 156.972C41.475 157.596 37.525 157.596 33.575 156.972L31.284 150.654C30.099 147.534 26.386 145.974 23.305 147.378L17.143 150.186C13.983 147.924 11.139 145.116 8.84802 141.996L11.692 135.912C13.114 132.87 11.613 129.204 8.37402 128.034L1.97502 125.772C1.42202 122.028 1.34302 118.128 1.97502 114.15L8.37402 111.888C11.534 110.718 13.114 107.052 11.692 104.01L8.84802 97.926C11.139 94.806 13.983 91.998 17.143 89.736L23.305 92.544C26.386 93.948 30.099 92.466 31.284 89.268L31.995 87.396" stroke="#9B51E0" stroke-width="2.5" stroke-miterlimit="10" stroke-linecap="round" stroke-linejoin="round"/>
<path d="M53.72 112.59L50.086 109.08C49.217 108.222 47.874 108.222 47.084 109.08L36.103 119.922L31.916 115.788C31.047 114.93 29.704 114.93 28.914 115.788L25.28 119.298C24.411 120.156 24.411 121.482 25.28 122.262L33.654 130.53C34.997 131.856 37.13 131.856 38.473 130.53L53.72 115.554C54.51 114.774 54.51 113.448 53.72 112.59Z" fill="#9B51E0"/>
<path d="M86 118.75C85.3096 118.75 84.75 119.31 84.75 120C84.75 120.69 85.3096 121.25 86 121.25V118.75ZM164.741 80C164.741 79.3096 164.182 78.75 163.491 78.75C162.801 78.75 162.241 79.3096 162.241 80H164.741ZM282.25 80C282.25 79.3096 281.69 78.75 281 78.75C280.31 78.75 279.75 79.3096 279.75 80H282.25ZM269.914 97.2222V98.4722V97.2222ZM233.331 97.2222V95.9722V97.2222ZM86 121.25H210.606V118.75H86V121.25ZM162.241 80V86.1111H164.741V80H162.241ZM174.577 98.4722H211.16V95.9722H174.577V98.4722ZM211.16 98.4722C216.589 98.4722 220.996 102.884 220.996 108.333H223.496C223.496 101.509 217.976 95.9722 211.16 95.9722V98.4722ZM162.241 86.1111C162.241 92.9353 167.762 98.4722 174.577 98.4722V95.9722C169.148 95.9722 164.741 91.5599 164.741 86.1111H162.241ZM210.606 121.25C217.727 121.25 223.496 115.464 223.496 108.333H220.996C220.996 114.089 216.341 118.75 210.606 118.75V121.25ZM279.75 80V86.1111H282.25V80H279.75ZM269.914 95.9722H233.331V98.4722H269.914V95.9722ZM233.331 95.9722C226.516 95.9722 220.996 101.509 220.996 108.333H223.496C223.496 102.884 227.902 98.4722 233.331 98.4722V95.9722ZM279.75 86.1111C279.75 91.5599 275.344 95.9722 269.914 95.9722V98.4722C276.73 98.4722 282.25 92.9353 282.25 86.1111H279.75Z" fill="url(#paint3_linear)"/>
<g clip-path="url(#clip1)">
<path d="M243.722 191.401C242.096 193.724 240.078 195.814 237.836 197.498L233.463 195.407C231.277 194.362 228.643 195.465 227.802 197.846L226.176 202.549C223.429 203.013 220.627 203.013 217.824 202.549L216.198 197.846C215.357 195.524 212.723 194.362 210.536 195.407L206.164 197.498C203.922 195.814 201.904 193.724 200.278 191.401L202.296 186.873C203.305 184.609 202.24 181.88 199.942 181.009L195.401 179.325C195.009 176.539 194.953 173.636 195.401 170.675L199.942 168.991C202.184 168.12 203.305 165.391 202.296 163.127L201.736 161.85" stroke="#52CDB7" stroke-width="2.5" stroke-miterlimit="10" stroke-linecap="round" stroke-linejoin="round"/>
<path d="M200.278 158.599C201.848 156.334 203.754 154.36 205.94 152.677C206.108 152.561 206.276 152.561 206.5 152.619L210.593 154.593C212.779 155.638 215.413 154.535 216.254 152.154L217.88 147.451C220.627 146.987 223.429 146.987 226.232 147.451L227.858 152.154C228.699 154.535 231.333 155.638 233.519 154.593L237.892 152.502C240.134 154.186 242.152 156.276 243.778 158.599L241.76 163.127C240.751 165.391 241.816 168.12 244.114 168.991L248.655 170.675C249.103 173.52 249.103 176.422 248.655 179.325L244.114 181.009C241.872 181.88 240.751 184.609 241.76 186.873L242.432 188.266" stroke="#52CDB7" stroke-width="2.5" stroke-miterlimit="10" stroke-linecap="round" stroke-linejoin="round"/>
<path d="M237.001 175.652C237.001 167.367 230.285 160.605 222.001 160.548C213.717 160.491 207.001 167.161 207.001 175.445C207.001 183.729 213.717 190.491 222.001 190.548C230.285 190.605 237.001 183.936 237.001 175.652Z" fill="#52CDB7"/>
<path d="M216.139 178.244L213 174.993L216.139 171.742" stroke="white" stroke-width="2.5" stroke-miterlimit="10" stroke-linecap="round" stroke-linejoin="round"/>
<path d="M228 171.742L231.195 174.993L228 178.244" stroke="white" stroke-width="2.5" stroke-miterlimit="10" stroke-linecap="round" stroke-linejoin="round"/>
<path d="M223.987 170L220.68 180.044" stroke="white" stroke-width="2.5" stroke-miterlimit="10" stroke-linecap="round" stroke-linejoin="round"/>
</g>
<path d="M120.035 93.1277C120.682 93.5017 120.706 94.4276 120.078 94.8333L109.231 101.845C108.575 102.269 107.708 101.811 107.688 101.03L107.353 87.5554C107.333 86.7746 108.177 86.2739 108.853 86.6647L120.035 93.1277Z" fill="#2F80ED"/>
<rect x="149.919" y="162" width="11.36" height="11.36" rx="1" transform="rotate(55.8554 149.919 162)" fill="#EB5757"/>
<circle cx="330" cy="93" r="6" fill="#52CDB7"/>
<path d="M298.971 149.923C299.173 149.434 298.578 149.007 298.18 149.355L287.302 158.849C287.023 159.092 287.095 159.543 287.436 159.687L291.874 161.562C292.128 161.669 292.247 161.961 292.141 162.215L288.447 171.05C288.242 171.539 288.841 171.969 289.239 171.618L301.27 161.018C301.545 160.775 301.474 160.328 301.136 160.183L296.146 158.039C295.895 157.931 295.777 157.641 295.882 157.389L298.971 149.923Z" fill="#FCA326"/>
<path d="M295.7 44.9C301.3 44.9 309.4 43.7 309.4 37.1C309.4 36.6 309.4 36.1 309.3 35.6L306 21.2C305.2 18 304.6 16.6 299 13.8C294.5 11.6 285.1 8 282.3 8C279.7 8 278.9 11.4 275.9 11.4C272.9 11.4 270.7 8.9 267.9 8.9C265.2 8.9 263.5 10.7 262.1 14.5C262.1 14.5 258.3 25 257.9 26.6C257.8 26.9 257.8 27.2 257.8 27.5C257.8 31.4 274 44.9 295.7 44.9ZM310.2 39.8C311 43.4 311 43.8 311 44.3C311 50.5 304 54 294.7 54C273.8 54 255.5 41.8 255.5 33.8C255.5 32.6 255.8 31.4 256.2 30.5C248.7 30.9 239 32.2 239 40.8C239 54.8 272.3 72 298.7 72C318.9 72 324 62.9 324 55.7C324 50.1 319.1 43.6 310.2 39.8Z" fill="#FC0D16"/>
<path d="M310.2 39.8C311 43.4 311 43.8 311 44.3C311 50.5 304 54 294.7 54C273.8 54 255.5 41.8 255.5 33.8C255.5 32.6 255.8 31.4 256.2 30.5L257.8 26.5C257.7 26.8 257.7 27.1 257.7 27.4C257.7 31.5 273.9 44.9 295.6 44.9C301.2 44.9 309.3 43.7 309.3 37.1C309.3 36.6 309.3 36.1 309.2 35.6L310.2 39.8Z" fill="#070606"/>
<defs>
<linearGradient id="paint0_linear" x1="164" y1="202.837" x2="56.7162" y2="202.837" gradientUnits="userSpaceOnUse">
<stop stop-color="#52CDB7"/>
<stop offset="1" stop-color="#9B51E0"/>
</linearGradient>
<linearGradient id="paint1_linear" x1="280" y1="202.837" x2="386.4" y2="202.837" gradientUnits="userSpaceOnUse">
<stop stop-color="#52CDB7"/>
<stop offset="1" stop-color="#2F80ED"/>
</linearGradient>
<linearGradient id="paint2_linear" x1="355" y1="120" x2="229.912" y2="120" gradientUnits="userSpaceOnUse">
<stop stop-color="#2F80ED"/>
<stop offset="1" stop-color="#2F80ED"/>
</linearGradient>
<linearGradient id="paint3_linear" x1="222.246" y1="120" x2="222.246" y2="80" gradientUnits="userSpaceOnUse">
<stop stop-color="#9B51E0"/>
<stop offset="1" stop-color="#FCA326"/>
</linearGradient>
<clipPath id="clip0">
<rect width="78" height="72" fill="white" transform="translate(124)"/>
</clipPath>
<clipPath id="clip1">
<rect width="56" height="58" fill="white" transform="translate(194 146)"/>
</clipPath>
</defs>
</svg>

<svg xmlns="http://www.w3.org/2000/svg" fill="none" viewBox="0 0 440 228"><path stroke="url(#a)" stroke-linecap="round" stroke-linejoin="round" stroke-width="2.5" d="M177.5 214h-56.854c-6.011 0-10.884-4.873-10.884-10.884v0c0-6.011-4.873-10.883-10.884-10.883H50c-5.523 0-10-4.478-10-10V166"/><path fill="#fff" d="M222 201.6c12.813 0 23.2-10.387 23.2-23.2 0-12.813-10.387-23.2-23.2-23.2-12.813 0-23.2 10.387-23.2 23.2 0 12.813 10.387 23.2 23.2 23.2Z"/><path stroke="#52CDB7" stroke-linecap="round" stroke-linejoin="round" stroke-miterlimit="10" stroke-width="2.5" d="M177.5 214.2v-48.8c0-2.7 2.1-4.8 4.8-4.8h11.6M266.5 211.2v-46.8c0-2.7-2.1-4.8-4.8-4.8h-12.1M168.8 226.2c-2.7 0-4.8-2.211-4.8-5.053V214.2h116v6.947c0 2.842-2.1 5.053-4.8 5.053H168.8Z"/><path fill="#52CDB7" d="M210.3 218.2c-.731 0-1.3-.553-1.3-1.263V215.2h26v1.737c0 .71-.569 1.263-1.3 1.263h-23.4Z"/><path stroke="url(#b)" stroke-linecap="round" stroke-linejoin="round" stroke-width="2.5" d="M266.5 214h56.339c6.011 0 10.883-4.873 10.883-10.884v0c0-6.011 4.873-10.883 10.884-10.883H393c5.523 0 10-4.478 10-10V162"/><path fill="#2F80ED" d="m388.489 151.865 1.532-6.709c1.604-7.073-2.844-12.031-2.844-11.958-2.406-2.917-2.26-6.198-2.188-6.125-.072-9.625-8.604-7.292-12.833-15.386l-2.187-3.208c4.229-13.344 16.406-19.25 16.406-19.25 1.312 1.021 1.896 2.406 1.823 2.334 1.823 4.01 10.135 2.624 10.062 2.624 4.667 0 5.105 5.323 4.959 4.959 0 1.458-.657 2.771-1.75 3.719l-9.334 8.02c-4.01 3.428-2.552 8.24-2.552 8.094 2.406 9.552 19.177 5.688 19.177 16.261-1.239 6.781-7.583 10.281-13.927 18.885l-6.344-2.26ZM427.938 95.427l-2.844 2.552c-2.99 2.698-7.875 1.24-8.823-2.77l-1.969-8.313s9.115 3.208 13.636 8.531ZM427.792 144.573v-6.927c0-5.688-4.594-3.865-6.271-9.844 0 .073-1.75-7.073-1.75-7.073-1.75-4.594 1.604-9.552 6.562-9.552h10.282s5.395 18.958-8.823 33.396Z"/><path stroke="#2F80ED" stroke-linecap="round" stroke-linejoin="round" stroke-miterlimit="10" stroke-width="2.5" d="M369.969 108.479C374.708 94.771 387.687 85 403 85c9.698 0 18.448 3.938 24.719 10.281M422.469 149.094C416.854 152.813 410.219 155 403 155c-19.323 0-35-15.677-35-35 0-1.094.073-2.26.146-3.354M432.531 101.188A35.09 35.09 0 0 1 438 120c0 9.552-3.865 18.229-10.062 24.573"/><g clip-path="url(#c)"><path fill="#FA6E26" d="m201.87 41.106-4.42-13.484-8.58-26.575c-.39-1.309-2.34-1.309-2.86 0l-8.71 26.706h-28.73l-8.58-26.706c-.39-1.309-2.34-1.309-2.86 0l-8.58 26.706-4.42 13.353c-.39 1.178 0 2.618 1.04 3.272L163 72l37.7-27.49c1.17-.786 1.56-2.095 1.17-3.404Z"/><path fill="#E04229" d="M148.7 27.753 163 72l14.43-44.247H148.7Z"/><path fill="#FA6E26" d="M128.55 27.753 163 72l-14.43-44.247h-20.02Z"/><path fill="#FAA126" d="m128.55 27.753-4.42 13.352c-.39 1.179 0 2.619 1.04 3.273L163 72l-34.45-44.247Z"/><path fill="#E04229" d="M128.55 27.754h20.15l-8.71-26.706c-.39-1.309-2.34-1.309-2.86 0l-8.58 26.706Z"/><path fill="#FA6E26" d="M177.43 27.753 163 72l34.45-44.247h-20.02Z"/><path fill="#FAA126" d="m197.45 27.753 4.42 13.483c.39 1.179 0 2.619-1.04 3.273L163 72l34.45-44.247Z"/><path fill="#E04229" d="M197.45 27.754h-20.02l8.71-26.706c.39-1.309 2.34-1.309 2.86 0l8.45 26.706Z"/></g><path stroke="url(#d)" stroke-linecap="round" stroke-width="2.5" d="M236 120h125"/><path fill="#2F80ED" d="M235.037 115.381a1 1 0 0 1 1.538.843v7.68a1 1 0 0 1-1.538.843l-6.013-3.84a1.001 1.001 0 0 1 0-1.686l6.013-3.84Z"/><path fill="#fff" d="m76.472 114.228-6.399-2.262c-3.16-1.17-4.74-4.836-3.318-7.878l2.844-6.084a37.322 37.322 0 0 0-8.295-8.19l-6.162 2.808c-3.081 1.404-6.794-.078-7.979-3.276l-2.291-6.318a37.24 37.24 0 0 0-11.771 0l-2.291 6.318c-1.185 3.12-4.898 4.68-7.979 3.276l-6.162-2.808a37.322 37.322 0 0 0-8.295 8.19l2.844 6.084c1.422 3.042-.079 6.708-3.318 7.878l-6.32 2.262c-.632 3.978-.553 7.878 0 11.622l6.399 2.262c3.239 1.17 4.74 4.836 3.318 7.878l-2.844 6.084a37.322 37.322 0 0 0 8.295 8.19l6.162-2.808c3.081-1.404 6.794.078 7.979 3.276l2.291 6.318c3.95.624 7.9.624 11.771 0l2.291-6.318c1.185-3.12 4.898-4.68 7.979-3.276l6.162 2.808a37.322 37.322 0 0 0 8.295-8.19l-2.844-6.084c-1.422-3.042.079-6.708 3.318-7.878l6.399-2.262c.553-3.9.553-7.8-.079-11.622Zm-22.752 1.326L38.552 130.53a3.416 3.416 0 0 1-4.819 0l-8.453-8.268c-.869-.858-.869-2.184 0-2.964l3.555-3.51c.869-.858 2.212-.858 3.002 0l4.187 4.134 11.06-10.842c.869-.858 2.212-.858 3.002 0l3.555 3.51c.869.858.869 2.184.079 2.964Z"/><path stroke="#9B51E0" stroke-linecap="round" stroke-linejoin="round" stroke-miterlimit="10" stroke-width="2.5" d="M33.654 83.028a37.24 37.24 0 0 1 11.771 0l2.291 6.318c1.185 3.12 4.898 4.68 7.98 3.276l6.161-2.808a37.322 37.322 0 0 1 8.295 8.19l-2.844 6.084c-1.422 3.042.08 6.708 3.318 7.878l6.4 2.262a35.856 35.856 0 0 1 0 11.622l-6.4 2.262c-3.16 1.17-4.74 4.836-3.318 7.878l2.844 6.084a37.322 37.322 0 0 1-8.295 8.19l-6.162-2.808c-3.08-1.404-6.794.078-7.979 3.276l-.79 2.184M45.346 156.972a37.24 37.24 0 0 1-11.771 0l-2.291-6.318c-1.185-3.12-4.898-4.68-7.979-3.276l-6.162 2.808a37.322 37.322 0 0 1-8.295-8.19l2.844-6.084c1.422-3.042-.079-6.708-3.318-7.878l-6.399-2.262c-.553-3.744-.632-7.644 0-11.622l6.399-2.262c3.16-1.17 4.74-4.836 3.318-7.878l-2.844-6.084a37.322 37.322 0 0 1 8.295-8.19l6.162 2.808c3.081 1.404 6.794-.078 7.979-3.276l.711-1.872"/><path fill="#9B51E0" d="m53.72 112.59-3.634-3.51c-.869-.858-2.212-.858-3.002 0l-10.981 10.842-4.187-4.134c-.869-.858-2.212-.858-3.002 0l-3.634 3.51c-.869.858-.869 2.184 0 2.964l8.374 8.268a3.416 3.416 0 0 0 4.819 0l15.247-14.976c.79-.78.79-2.106 0-2.964Z"/><path fill="url(#e)" d="M86 118.75a1.25 1.25 0 0 0 0 2.5v-2.5ZM164.741 80a1.25 1.25 0 1 0-2.5 0h2.5Zm117.509 0a1.25 1.25 0 0 0-2.5 0h2.5Zm-12.336 17.222v1.25-1.25Zm-36.583 0v-1.25 1.25ZM86 121.25h124.606v-2.5H86v2.5ZM162.241 80v6.111h2.5V80h-2.5Zm12.336 18.472h36.583v-2.5h-36.583v2.5Zm36.583 0c5.429 0 9.836 4.412 9.836 9.861h2.5c0-6.824-5.52-12.36-12.336-12.36v2.5Zm-48.919-12.36c0 6.823 5.521 12.36 12.336 12.36v-2.5c-5.429 0-9.836-4.412-9.836-9.86h-2.5Zm48.365 35.138c7.121 0 12.89-5.786 12.89-12.917h-2.5c0 5.756-4.655 10.417-10.39 10.417v2.5ZM279.75 80v6.111h2.5V80h-2.5Zm-9.836 15.972h-36.583v2.5h36.583v-2.5Zm-36.583 0c-6.815 0-12.335 5.537-12.335 12.361h2.5c0-5.449 4.406-9.86 9.835-9.86v-2.5Zm46.419-9.86c0 5.448-4.406 9.86-9.836 9.86v2.5c6.816 0 12.336-5.537 12.336-12.36h-2.5Z"/><g clip-path="url(#f)"><path stroke="#52CDB7" stroke-linecap="round" stroke-linejoin="round" stroke-miterlimit="10" stroke-width="2.5" d="M243.722 191.401a27.156 27.156 0 0 1-5.886 6.097l-4.373-2.091c-2.186-1.045-4.82.058-5.661 2.439l-1.626 4.703a25.23 25.23 0 0 1-8.352 0l-1.626-4.703c-.841-2.322-3.475-3.484-5.662-2.439l-4.372 2.091a27.156 27.156 0 0 1-5.886-6.097l2.018-4.528c1.009-2.264-.056-4.993-2.354-5.864l-4.541-1.684c-.392-2.786-.448-5.689 0-8.65l4.541-1.684c2.242-.871 3.363-3.6 2.354-5.864l-.56-1.277M200.278 158.599a26.563 26.563 0 0 1 5.662-5.922c.168-.116.336-.116.56-.058l4.093 1.974c2.186 1.045 4.82-.058 5.661-2.439l1.626-4.703a25.23 25.23 0 0 1 8.352 0l1.626 4.703c.841 2.381 3.475 3.484 5.661 2.439l4.373-2.091a27.156 27.156 0 0 1 5.886 6.097l-2.018 4.528c-1.009 2.264.056 4.993 2.354 5.864l4.541 1.684a28.003 28.003 0 0 1 0 8.65l-4.541 1.684c-2.242.871-3.363 3.6-2.354 5.864l.672 1.393"/><path fill="#52CDB7" d="M237.001 175.652c0-8.285-6.716-15.047-15-15.104a14.877 14.877 0 0 0-15 14.897c0 8.284 6.716 15.046 15 15.103 8.284.057 15-6.612 15-14.896Z"/><path stroke="#fff" stroke-linecap="round" stroke-linejoin="round" stroke-miterlimit="10" stroke-width="2.5" d="M216.139 178.244 213 174.993l3.139-3.251M228 171.742l3.195 3.251-3.195 3.251M223.987 170l-3.307 10.044"/></g><path fill="#2F80ED" d="M120.035 93.128a1 1 0 0 1 .043 1.705l-10.847 7.012a1 1 0 0 1-1.543-.815l-.335-13.475a1 1 0 0 1 1.5-.89l11.182 6.463Z"/><rect width="11.36" height="11.36" x="149.919" y="162" fill="#EB5757" rx="1" transform="rotate(55.855 149.919 162)"/><circle cx="330" cy="93" r="6" fill="#52CDB7"/><path fill="#FCA326" d="M298.971 149.923c.202-.489-.393-.916-.791-.568l-10.878 9.494a.5.5 0 0 0 .134.838l4.438 1.875a.5.5 0 0 1 .267.653l-3.694 8.835c-.205.489.394.919.792.568l12.031-10.6a.5.5 0 0 0-.134-.835l-4.99-2.144a.5.5 0 0 1-.264-.65l3.089-7.466Z"/><path fill="#FC0D16" d="M295.7 44.9c5.6 0 13.7-1.2 13.7-7.8 0-.5 0-1-.1-1.5L306 21.2c-.8-3.2-1.4-4.6-7-7.4-4.5-2.2-13.9-5.8-16.7-5.8-2.6 0-3.4 3.4-6.4 3.4-3 0-5.2-2.5-8-2.5-2.7 0-4.4 1.8-5.8 5.6 0 0-3.8 10.5-4.2 12.1-.1.3-.1.6-.1.9 0 3.9 16.2 17.4 37.9 17.4Zm14.5-5.1c.8 3.6.8 4 .8 4.5 0 6.2-7 9.7-16.3 9.7-20.9 0-39.2-12.2-39.2-20.2 0-1.2.3-2.4.7-3.3-7.5.4-17.2 1.7-17.2 10.3 0 14 33.3 31.2 59.7 31.2 20.2 0 25.3-9.1 25.3-16.3 0-5.6-4.9-12.1-13.8-15.9Z"/><path fill="#070606" d="M310.2 39.8c.8 3.6.8 4 .8 4.5 0 6.2-7 9.7-16.3 9.7-20.9 0-39.2-12.2-39.2-20.2 0-1.2.3-2.4.7-3.3l1.6-4c-.1.3-.1.6-.1.9 0 4.1 16.2 17.5 37.9 17.5 5.6 0 13.7-1.2 13.7-7.8 0-.5 0-1-.1-1.5l1 4.2Z"/><defs><linearGradient id="a" x1="164" x2="56.716" y1="202.837" y2="202.837" gradientUnits="userSpaceOnUse"><stop stop-color="#52CDB7"/><stop offset="1" stop-color="#9B51E0"/></linearGradient><linearGradient id="b" x1="280" x2="386.4" y1="202.837" y2="202.837" gradientUnits="userSpaceOnUse"><stop stop-color="#52CDB7"/><stop offset="1" stop-color="#2F80ED"/></linearGradient><linearGradient id="d" x1="355" x2="229.912" y1="120" y2="120" gradientUnits="userSpaceOnUse"><stop stop-color="#2F80ED"/><stop offset="1" stop-color="#2F80ED"/></linearGradient><linearGradient id="e" x1="222.246" x2="222.246" y1="120" y2="80" gradientUnits="userSpaceOnUse"><stop stop-color="#9B51E0"/><stop offset="1" stop-color="#FCA326"/></linearGradient><clipPath id="c"><path fill="#fff" d="M124 0h78v72h-78z"/></clipPath><clipPath id="f"><path fill="#fff" d="M194 146h56v58h-56z"/></clipPath></defs></svg>
